X: 142
T:An Dro
T:"Breton Dance Tune"
M:C|
L:1/4
R:An Dro
Z:Lesl Harker, woodenflute mailing list
K:Em
|: E2B2 B2 AB | c2B2 AGFG | A2A2 B2A2 |1 GFEF G2F2 :|2 GFEF E4 ||
|: e2e2 f2 gf | e2e2 fefg | a2b2 b2a2 |1 gfef g2f2 :|2 gfef e4 ||
<end>
<start>
